_site/images/features-page/icon-strategy.svg

<svg fill="none" height="30" viewBox="0 0 30 30" width="30" xmlns="http://www.w3.org/2000/svg"><rect fill="#ff647c" height="30" rx="7" width="30"/><g fill="#fff" stroke="#fff"><path d="m14.3717 20.6943c0 .0125-.0026.0248-.0074.0358-.0051.0117-.0125.0222-.0212.0302-.1136.1038-.2141.2219-.2988.3508-.0793.1206-.0477.2839.0703.3648.044.0301.0939.0446.1432.0446.0829 0 .1643-.0409.2139-.1164.0609-.0926.1331-.1775.2148-.2521.0629-.0577.1126-.1272.1475-.2067.0343-.078.0524-.1648.0524-.251 0-.3396-.2704-.6159-.6029-.6159h-3.3729c-.1574 0-.2854-.1307-.2854-.2914v-3.4226c0-.1706-.0649-.3308-.1828-.4512-.1181-.1206-.2751-.1871-.4421-.1871-.17591 0-.34509.0769-.46408.211-.24676.2778-.59843.4371-.96487.4371-.36633 0-.70548-.1511-.95485-.4254-.2492-.2741-.37136-.6318-.3441-1.0072.04784-.655.56797-1.1815 1.20977-1.2248.40137-.027.7855.1313 1.05391.434.05842.0661.1286.1183.20921.1555.10894.0499.22955.0667.34861.0485.3029-.0462.5313-.3227.5313-.6432v-3.4105c0-.1607.128-.2914.2853-.2914h3.351c.3446 0 .6249-.28638.6249-.63833v-.05572c0-.17912-.0752-.35177-.2067-.47419-.2719-.25164-.4278-.6108-.4278-.98535 0-.37424.1479-.72064.4166-.97531.2683-.25443.6185-.37905.9861-.35107.6411.04855 1.1566.57983 1.1991 1.23567.0264.40978-.1286.80223-.4253 1.0768-.1312.12147-.2064.29401-.2064.47342v.05572c0 .35195.2804.63826.625.63826h.805c.1421 0 .2574-.11767.2574-.26286 0-.1452-.1152-.2629-.2574-.2629h-.805c-.0608 0-.1102-.05048-.1102-.1125v-.05572c0-.03133.0136-.06191.0373-.08385.4138-.38292.6301-.92999.5933-1.501-.0593-.91582-.7793-1.65758-1.6746-1.72536-.5119-.03913-1 .135-1.3745.49001-.3694.35015-.5812.8461-.5812 1.36065 0 .52267.2176 1.02382.5964 1.3745.0243.02254.0382.05351.0382.08505v.05572c0 .06205-.0495.1125-.1102.1125h-3.3509c-.4412 0-.8001.36657-.8001.81716v3.4105c0 .0612-.0407.1153-.0926.1233-.02182.0033-.04265.0005-.06123-.008-.01494-.0069-.02792-.0164-.03873-.0287-.37487-.4227-.91031-.6435-1.46957-.606-.89624.0605-1.62247.7958-1.68925 1.7105-.038.5229.13252 1.0215.4802 1.4039.34283.3772.82836.5935 1.33207.5935.51131 0 1.00194-.2222 1.34614-.6097.02172-.0244.05191-.0384.08277-.0384.0399 0 .0661.0207.0782.0331.012.0122.032.0387.032.0794v3.4226c0 .4506.3589.8172.8001.8172h3.3729c.0486 0 .0882.0404.0882.0901z"/><path d="m20.3691 13.0376c.3641-.0802.6283-.4157.6283-.7979v-1.9386c0-.45064-.3589-.81721-.8001-.81721h-1.3483c-.1422 0-.2574.1177-.2574.2629 0 .14519.1152.26291.2574.26291h1.3483c.1573 0 .2854.1307.2854.2914v1.9386c0 .1362-.0934.2556-.222.2839-1.0355.2279-1.787 1.1796-1.787 2.2629 0 1.0832.7515 2.0347 1.787 2.2625.1286.0283.222.1477.222.2839v2.4542c0 .1607-.128.2914-.2854.2914h-3.3729c-.161 0-.3124.064-.4263.1804-.1139.1163-.1766.2709-.1766.4354 0 .1746.0731.3416.2006.4584.2757.2522.4339.6134.4339.991 0 .3689-.1519.7246-.4168.9756-.2683.2544-.6182.379-.9858.3511-.5806-.0443-1.0649-.4838-1.1778-1.0688-.0275-.1424-.1628-.2352-.3023-.2071-.1394.0281-.2302.1663-.2028.3088.1575.8163.8338 1.4296 1.6446 1.4914.0472.0036.0941.0054.1408.0054.46 0 .8936-.1732 1.2335-.4954.3694-.3503.5813-.8463.5813-1.361 0-.5269-.2206-1.0308-.6051-1.3826-.0186-.0171-.0294-.0415-.0294-.0668 0-.0324.0162-.0538.0259-.0636.0096-.0099.0306-.0265.0623-.0265h3.3729c.4412 0 .8001-.3665.8001-.8171v-2.4542c0-.3822-.2642-.7178-.6283-.7979-.8-.176-1.3806-.9114-1.3806-1.7486 0-.8373.5806-1.5728 1.3806-1.7488z"/></g></svg>

<svg width="30" height="30" viewBox="0 0 30 30" fill="none" xmlns="http://www.w3.org/2000/svg">
<rect width="30" height="30" rx="7" fill="#FF647C"/>
<path d="M14.3717 20.6943C14.3717 20.7068 14.3691 20.7191 14.3643 20.7301C14.3592 20.7418 14.3518 20.7523 14.3431 20.7603C14.2295 20.8641 14.129 20.9822 14.0443 21.1111C13.965 21.2317 13.9966 21.395 14.1146 21.4759C14.1586 21.506 14.2085 21.5205 14.2578 21.5205C14.3407 21.5205 14.4221 21.4796 14.4717 21.4041C14.5326 21.3115 14.6048 21.2266 14.6865 21.152C14.7494 21.0943 14.7991 21.0248 14.834 20.9453C14.8683 20.8673 14.8864 20.7805 14.8864 20.6943C14.8864 20.3547 14.616 20.0784 14.2835 20.0784H10.9106C10.7532 20.0784 10.6252 19.9477 10.6252 19.787V16.3644C10.6252 16.1938 10.5603 16.0336 10.4424 15.9132C10.3243 15.7926 10.1673 15.7261 10.0003 15.7261C9.82439 15.7261 9.65521 15.803 9.53622 15.9371C9.28946 16.2149 8.93779 16.3742 8.57135 16.3742C8.20502 16.3742 7.86587 16.2231 7.6165 15.9488C7.3673 15.6747 7.24514 15.317 7.2724 14.9416C7.32024 14.2866 7.84037 13.7601 8.48217 13.7168C8.88354 13.6898 9.26767 13.8481 9.53608 14.1508C9.5945 14.2169 9.66468 14.2691 9.74529 14.3063C9.85423 14.3562 9.97484 14.373 10.0939 14.3548C10.3968 14.3086 10.6252 14.0321 10.6252 13.7116V10.3011C10.6252 10.1404 10.7532 10.0097 10.9105 10.0097H14.2615C14.6061 10.0097 14.8864 9.72332 14.8864 9.37137V9.31565C14.8864 9.13653 14.8112 8.96388 14.6797 8.84146C14.4078 8.58982 14.2519 8.23066 14.2519 7.85611C14.2519 7.48187 14.3998 7.13547 14.6685 6.8808C14.9368 6.62637 15.287 6.50175 15.6546 6.52973C16.2957 6.57828 16.8112 7.10956 16.8537 7.7654C16.8801 8.17518 16.7251 8.56763 16.4284 8.8422C16.2972 8.96367 16.222 9.13621 16.222 9.31562V9.37134C16.222 9.72329 16.5024 10.0096 16.847 10.0096H17.652C17.7941 10.0096 17.9094 9.89193 17.9094 9.74674C17.9094 9.60154 17.7942 9.48384 17.652 9.48384H16.847C16.7862 9.48384 16.7368 9.43336 16.7368 9.37134V9.31562C16.7368 9.28429 16.7504 9.25371 16.7741 9.23177C17.1879 8.84885 17.4042 8.30178 17.3674 7.73077C17.3081 6.81495 16.5881 6.07319 15.6928 6.00541C15.1809 5.96628 14.6928 6.14041 14.3183 6.49542C13.9489 6.84557 13.7371 7.34152 13.7371 7.85607C13.7371 8.37874 13.9547 8.87989 14.3335 9.23057C14.3578 9.25311 14.3717 9.28408 14.3717 9.31562V9.37134C14.3717 9.43339 14.3222 9.48384 14.2615 9.48384H10.9106C10.4694 9.48384 10.1105 9.85041 10.1105 10.301V13.7115C10.1105 13.7727 10.0698 13.8268 10.0179 13.8348C9.99608 13.8381 9.97525 13.8353 9.95667 13.8268C9.94173 13.8199 9.92875 13.8104 9.91794 13.7981C9.54307 13.3754 9.00763 13.1546 8.44837 13.1921C7.55213 13.2526 6.8259 13.9879 6.75912 14.9026C6.72112 15.4255 6.89164 15.9241 7.23932 16.3065C7.58215 16.6837 8.06768 16.9 8.57139 16.9C9.0827 16.9 9.57333 16.6778 9.91753 16.2903C9.93925 16.2659 9.96944 16.2519 10.0003 16.2519C10.0402 16.2519 10.0664 16.2726 10.0785 16.285C10.0905 16.2972 10.1105 16.3237 10.1105 16.3644V19.787C10.1105 20.2376 10.4694 20.6042 10.9106 20.6042H14.2835C14.3321 20.6042 14.3717 20.6446 14.3717 20.6943Z" fill="white" stroke="white"/>
<path d="M20.3691 13.0376C20.7332 12.9574 20.9974 12.6219 20.9974 12.2397V10.3011C20.9974 9.85046 20.6385 9.48389 20.1973 9.48389H18.849C18.7068 9.48389 18.5916 9.60159 18.5916 9.74679C18.5916 9.89198 18.7068 10.0097 18.849 10.0097H20.1973C20.3546 10.0097 20.4827 10.1404 20.4827 10.3011V12.2397C20.4827 12.3759 20.3893 12.4953 20.2607 12.5236C19.2252 12.7515 18.4737 13.7032 18.4737 14.7865C18.4737 15.8697 19.2252 16.8212 20.2607 17.049C20.3893 17.0773 20.4827 17.1967 20.4827 17.3329V19.7871C20.4827 19.9478 20.3547 20.0785 20.1973 20.0785H16.8244C16.6634 20.0785 16.512 20.1425 16.3981 20.2589C16.2842 20.3752 16.2215 20.5298 16.2215 20.6943C16.2215 20.8689 16.2946 21.0359 16.4221 21.1527C16.6978 21.4049 16.856 21.7661 16.856 22.1437C16.856 22.5126 16.7041 22.8683 16.4392 23.1193C16.1709 23.3737 15.821 23.4983 15.4534 23.4704C14.8728 23.4261 14.3885 22.9866 14.2756 22.4016C14.2481 22.2592 14.1128 22.1664 13.9733 22.1945C13.8339 22.2226 13.7431 22.3608 13.7705 22.5033C13.928 23.3196 14.6043 23.9329 15.4151 23.9947C15.4623 23.9983 15.5092 24.0001 15.5559 24.0001C16.0159 24.0001 16.4495 23.8269 16.7894 23.5047C17.1588 23.1544 17.3707 22.6584 17.3707 22.1437C17.3707 21.6168 17.1501 21.1129 16.7656 20.7611C16.747 20.744 16.7362 20.7196 16.7362 20.6943C16.7362 20.6619 16.7524 20.6405 16.7621 20.6307C16.7717 20.6208 16.7927 20.6042 16.8244 20.6042H20.1973C20.6385 20.6042 20.9974 20.2377 20.9974 19.7871V17.3329C20.9974 16.9507 20.7332 16.6151 20.3691 16.535C19.5691 16.359 18.9885 15.6236 18.9885 14.7864C18.9885 13.9491 19.5691 13.2136 20.3691 13.0376Z" fill="white" stroke="white"/>
</svg>
